X:1
T:Dockedansen
C:Trad
R:Vals
Z:Patrik Mnsson, 2008-10-30
O:Skne
M:3/4
L:1/8
K:C
|: A^c e2 f2 | de ^cA Bc | de d2 ^c2 | A^c e2 f2 | de ^cA Bc | de d2 z2 :|
|: fg a2 fa | ag e2 eg | gf d2 df | e^c a2 aB | ^cd e2 gf | de ^cA Bc | de d2 z2 :|
